X: 0642
M: 2/4
L: 1/16
K: Dmix
c>dB>d A>dG>B | F>AG>B D2 B>d | c>dB>d A>dG>B | A6 A,2 |\
c2B2 A2G2 | F2E2 D2D2 | F2AA GGE2 | F4 z2 |]

